icon_installer/data/icons/scalable/actions/show-text-direction-ltr-symbolic.svg

<?xml version="1.0" encoding="UTF-8"?>
<svg height="16px" viewBox="0 0 16 16" width="16px" xmlns="http://www.w3.org/2000/svg">
    <g fill="#222222">
        <path d="m 12 9 v 1 c 0 0.265625 0.09375 0.53125 0.28125 0.71875 l 0.28125 0.28125 h -11.625 v 2 h 11.625 l -0.28125 0.28125 c -0.1875 0.1875 -0.28125 0.453125 -0.28125 0.71875 v 1 h 1 c 0.265625 0 0.53125 -0.09375 0.71875 -0.28125 l 2.28125 -2.28125 v -0.875 l -2.28125 -2.28125 c -0.1875 -0.1875 -0.453125 -0.28125 -0.71875 -0.28125 z m 0 0"/>
        <path d="m 3 2 h 5 c 0.546875 0 1 0.453125 1 1 v 3.925781 c 0 0.589844 -0.484375 1.074219 -1.074219 1.074219 h -3.917969 c -0.589843 0 -1.074218 -0.484375 -1.078124 -1.074219 v 0.035157 c 0.019531 -0.546876 0.488281 -0.980469 1.035156 -0.960938 h 0.035156 h 6 c 0.550781 0 1 -0.449219 1 -1 s -0.449219 -1 -1 -1 h -6 h 0.035156 c -1.660156 -0.058594 -3.046875 1.230469 -3.105468 2.894531 v 0.035157 c 0.003906 1.703124 1.375 3.070312 3.078124 3.070312 h 3.917969 c 1.703125 0 3.074219 -1.371094 3.074219 -3.074219 v -3.925781 c 0 -1.664062 -1.335938 -3 -3 -3 h -5 c -0.550781 0 -1 0.449219 -1 1 s 0.449219 1 1 1 z m 0 0"/>
    </g>
</svg>

<svg xmlns="http://www.w3.org/2000/svg" width="16" height="16"><g fill="#222"><path d="M12 9v1c0 .266.094.531.281.719l.281.281H.938v2h11.624l-.28.281A1.016 1.016 0 0 0 12 14v1h1c.266 0 .531-.094.719-.281L16 12.438v-.876l-2.281-2.28A1.016 1.016 0 0 0 13 9zm0 0"/><path d="M3 2h5c.547 0 1 .453 1 1v3.926C9 7.516 8.516 8 7.926 8H4.008c-.59 0-1.074-.484-1.078-1.074v.035c.02-.547.488-.98 1.035-.961H10c.55 0 1-.45 1-1s-.45-1-1-1H4h.035A2.995 2.995 0 0 0 .93 6.895v.035A3.07 3.07 0 0 0 4.008 10h3.918A3.067 3.067 0 0 0 11 6.926V3c0-1.664-1.336-3-3-3H3c-.55 0-1 .45-1 1s.45 1 1 1zm0 0"/></g></svg>
